X:2
T:奇异恩典
T:
G:flute
M:3/4
L:1/4
Q:1/4=69
K:G
Z2 | z2 !mp!D/ |: G2(B/G/) | B2A | G2E | D2 !crescendo(!D |
w:奇 异 恩 * 典， 何 等 甘 甜， 我
w:如 此 恩 * 典， 使 我 敬 畏， 使
w:许 多 危 * 险， 试 炼 网 罗， 我
w:将 来 禧 * 年， 圣 徒 欢 聚， 恩
G2(B/G/!crescendo)!) | B2A |!mf!(d3| d2) !crescendo(!B | (d3/2 B)/ ( !crescendo)!d/ B)/ | G2D |
w: 罪 已 * 得 赦 免； * 前 我 * 失 * 丧， 今
w: 我 心 * 得 安 慰； * 初 信 * 之 * 时， 即
w: 已 安 * 然 度 过； * 靠 主 * 恩 * 典， 安
w: 光 爱 * 谊 千 年； * 喜 乐 * 颂 * 赞， 在
(E3/2 G/) (G/E/) |D2D | G2(B/G/) | !diminuendo(!B2A |1 !diminuendo)!G2 D/:|2 G2 D/ |
w: 被 * 寻 * 回， 瞎 眼 今 * 得 看 见！
w: 蒙 * 恩 * 惠， 真 是 何 * 等 宝 贵！
w: 全 * 不 * 怕， 更 引 导 * 我 归 家！
w: 父 * 座 * 前， 深 望 那 * 日 快 现！
G2(B/G/) | B2A | G2 G/E/ | D/E/ F/G/ A| G2(B/G/) | B2 A/B/ |
(d3 | d2) B | d>B d/B/ | G/A/ B/G/ D | E>G G/E/ | D2 D |
G2 B/G/ | !diminuendo(!B2 !diminuendo)!A | G2 D | G2 B/G/ | !mf!B2 A | G2 E |
D2 !crescendo(!D | G2 B/!crescendo)!G/ | B2 A | (d3 | d2) !crescendo(!B | d>!crescendo)!B d/B/ |
G2 D | E>G G/E/ | D2 D | !diminuendo(!G2 B/G/ | !diminuendo)!B2 A | G3 |]
